src/lib/packages/icons/src/assets/filled/presentation-pen.svg

<svg width="24" height="24" viewBox="0 0 24 24" fill="none" xmlns="http://www.w3.org/2000/svg">
<path d="M21 2.25H3C2.586 2.25 2.25 2.586 2.25 3C2.25 3.414 2.586 3.75 3 3.75H4V13C4 15.29 5.21 16.5 7.5 16.5H11.25V18.6L8.58002 20.38C8.24002 20.61 8.15 21.07 8.38 21.42C8.61 21.76 9.06998 21.85 9.41998 21.62L12 19.9L14.58 21.62C14.71 21.71 14.86 21.75 15 21.75C15.24 21.75 15.48 21.63 15.62 21.42C15.85 21.07 15.76 20.61 15.42 20.38L12.75 18.6V16.5H16.5C18.79 16.5 20 15.29 20 13V3.75H21C21.414 3.75 21.75 3.414 21.75 3C21.75 2.586 21.414 2.25 21 2.25ZM10.219 13.5H8V11.281L11.979 7.28198L14.218 9.521L10.219 13.5ZM15.738 8.01196L14.918 8.82202L12.679 6.58301L13.489 5.76294C13.839 5.41294 14.399 5.41294 14.749 5.76294L15.739 6.75305C16.088 7.10205 16.088 7.66196 15.738 8.01196Z" fill="currentColor"/>
</svg>

<svg xmlns="http://www.w3.org/2000/svg" width="24" height="24" fill="none"><path fill="currentColor" d="M21 2.25H3a.75.75 0 0 0 0 1.5h1V13c0 2.29 1.21 3.5 3.5 3.5h3.75v2.1l-2.67 1.78c-.34.23-.43.69-.2 1.04.23.34.69.43 1.04.2L12 19.9l2.58 1.72a.751.751 0 0 0 .84-1.24l-2.67-1.78v-2.1h3.75c2.29 0 3.5-1.21 3.5-3.5V3.75h1a.75.75 0 0 0 0-1.5ZM10.219 13.5H8v-2.219l3.979-3.999 2.239 2.239-3.999 3.979Zm5.519-5.488-.82.81-2.239-2.239.81-.82c.35-.35.91-.35 1.26 0l.99.99a.887.887 0 0 1-.001 1.259Z"/></svg>
